src/icons/qbt-theme/build-icons/icons/edit-rename.svg

<svg xmlns="http://www.w3.org/2000/svg" viewBox="0 0 32 32">
  <path fill="#FFF" d="M28.8 18.6c0 .1 0 .1 0 0 0 .2-.1.3-.2.5.1-.1.2-.3.2-.5"/>
  <path fill="#733737" d="M26.4 17s.1 0 0 0c.1 0 0 0 0 0z"/>
  <path fill="#FFF" d="M26.5 17s-.1 0 0 0c-.1 0 0 0 0 0"/>
  <path fill="#375273" d="M23.2 19.2v2.7c0 1.1-.4 2.1-1.2 2.8s-1.7 1.2-2.8 1.2H7.6c-1.1 0-2.1-.4-2.8-1.2S3.6 23 3.6 21.9V10.2c0-1.1.4-2.1 1.2-2.8s1.7-1.2 2.8-1.2h11.6c.6 0 1.1.1 1.6.3.2.1.2.2.3.3 0 .2 0 .3-.1.4l-.7.7c-.2.2-.3.2-.5.1H7.6c-.6 0-1.2.2-1.6.6-.4.4-.7 1-.7 1.6v11.6c0 .6.2 1.1.7 1.6.4.4 1 .6 1.6.6h11.6c.6 0 1.1-.2 1.6-.7.4-.4.7-1 .7-1.6V20c0-.1 0-.2.1-.3l.9-.9c.1-.1.3-.2.5-.1.1.1.2.3.2.5zM21.9 8.9l4 4-9.4 9.4h-4v-4l9.4-9.4zm-6 12l1.6-1.6-2.1-2.1-1.6 1.6v.8h1.3v1.3h.8zm6.2-10c-.1-.1-.3-.1-.5 0l-4.9 4.9c-.2.2-.2.3 0 .5.1.1.3.1.5 0l4.9-4.9c.1-.2.1-.4 0-.5zm6-.2L26.8 12l-4-4L24 6.7c.3-.3.6-.4.9-.4.4 0 .7.1.9.4l2.1 2.1c.3.3.4.6.4.9s0 .7-.2 1z"/>
</svg>

<?xml version="1.0" encoding="utf-8"?>
<!-- Generator: Adobe Illustrator 18.0.0, SVG Export Plug-In . SVG Version: 6.00 Build 0)  -->
<!DOCTYPE svg PUBLIC "-//W3C//DTD SVG 1.1//EN" "http://www.w3.org/Graphics/SVG/1.1/DTD/svg11.dtd">
<svg version="1.1" id="Layer_1" xmlns="http://www.w3.org/2000/svg" xmlns:xlink="http://www.w3.org/1999/xlink" x="0px" y="0px"
	 viewBox="0 0 32 32" enable-background="new 0 0 32 32" xml:space="preserve">
<g>
	<path fill="#FFFFFF" d="M28.8,18.6C28.8,18.7,28.8,18.7,28.8,18.6c0,0.2-0.1,0.3-0.2,0.5C28.7,19,28.8,18.8,28.8,18.6"/>
</g>
<g>
	<path fill="#733737" d="M26.4,17L26.4,17C26.4,17,26.5,17,26.4,17C26.5,17,26.4,17,26.4,17z"/>
	<path fill="#FFFFFF" d="M26.5,17C26.5,17,26.4,17,26.5,17C26.4,17,26.5,17,26.5,17"/>
</g>
<g>
	<path fill="#375273" d="M23.2,19.2v2.7c0,1.1-0.4,2.1-1.2,2.8s-1.7,1.2-2.8,1.2H7.6c-1.1,0-2.1-0.4-2.8-1.2s-1.2-1.7-1.2-2.8V10.2
		c0-1.1,0.4-2.1,1.2-2.8s1.7-1.2,2.8-1.2h11.6c0.6,0,1.1,0.1,1.6,0.3C21,6.6,21,6.7,21.1,6.8c0,0.2,0,0.3-0.1,0.4l-0.7,0.7
		C20.1,8.1,20,8.1,19.8,8C19.6,8,19.4,8,19.2,8H7.6C7,8,6.4,8.2,6,8.6c-0.4,0.4-0.7,1-0.7,1.6v11.6c0,0.6,0.2,1.1,0.7,1.6
		C6.4,23.8,7,24,7.6,24h11.6c0.6,0,1.1-0.2,1.6-0.7c0.4-0.4,0.7-1,0.7-1.6V20c0-0.1,0-0.2,0.1-0.3l0.9-0.9c0.1-0.1,0.3-0.2,0.5-0.1
		C23.1,18.8,23.2,19,23.2,19.2z M21.9,8.9l4,4l-9.4,9.4h-4v-4L21.9,8.9z M15.9,20.9l1.6-1.6l-2.1-2.1l-1.6,1.6v0.8h1.3v1.3H15.9z
		 M22.1,10.9c-0.1-0.1-0.3-0.1-0.5,0l-4.9,4.9c-0.2,0.2-0.2,0.3,0,0.5c0.1,0.1,0.3,0.1,0.5,0l4.9-4.9C22.2,11.2,22.2,11,22.1,10.9z
		 M28.1,10.7L26.8,12l-4-4L24,6.7c0.3-0.3,0.6-0.4,0.9-0.4c0.4,0,0.7,0.1,0.9,0.4l2.1,2.1c0.3,0.3,0.4,0.6,0.4,0.9
		S28.3,10.4,28.1,10.7z"/>
</g>
</svg>
